actions/symbolic/mail-send-symbolic.svg

<svg viewBox="0 0 16 16" xmlns="http://www.w3.org/2000/svg"><path d="m7.1352095 2.000008c-.2937769.0010646-.5856469.1135614-.8069073.3364904-.4425468.4457584-.4406532 1.1761921.0050223 1.6188368l4.0613215 4.0328624-4.0328622 4.0613214c-.4425438.44572-.4389767 1.177941.0067 1.620511.4457094.44282 1.1762662.439304 1.6188368-.0067l4.8397654-4.8749214c.2212-.2228404.3342-.5177193.333143-.8102555-.0011-.2923056-.115392-.5873062-.338165-.8085814l-4.874925-4.8397696c-.2229211-.2213151-.5181306-.3308587-.8119295-.3297941zm-1.9268678 4.106522c-1.036255 0-1.8833417.8454126-1.8833417 1.8816676 0 1.0362924.8470867 1.8833424 1.8833417 1.8833424 1.0362927 0 1.8833417-.84705 1.8833417-1.8833424 0-1.036255-.847049-1.8816676-1.8833417-1.8816676z" fill="#43be80"/></svg>

<?xml version="1.0" encoding="UTF-8" standalone="no"?>
<svg
   xmlns:dc="http://purl.org/dc/elements/1.1/"
   xmlns:cc="http://creativecommons.org/ns#"
   xmlns:rdf="http://www.w3.org/1999/02/22-rdf-syntax-ns#"
   xmlns:svg="http://www.w3.org/2000/svg"
   xmlns="http://www.w3.org/2000/svg"
   xmlns:sodipodi="http://sodipodi.sourceforge.net/DTD/sodipodi-0.dtd"
   xmlns:inkscape="http://www.inkscape.org/namespaces/inkscape"
   viewBox="0 0 16 16"
   id="svg3197"
   version="1.1"
   inkscape:version="0.91 r13725"
   sodipodi:docname="mail-send-symbolic.svg">
  <metadata
     id="metadata3205">
    <rdf:RDF>
      <cc:Work
         rdf:about="">
        <dc:format>image/svg+xml</dc:format>
        <dc:type
           rdf:resource="http://purl.org/dc/dcmitype/StillImage" />
      </cc:Work>
    </rdf:RDF>
  </metadata>
  <sodipodi:namedview
     pagecolor="#ffffff"
     bordercolor="#666666"
     borderopacity="1"
     objecttolerance="10"
     gridtolerance="10"
     guidetolerance="10"
     inkscape:pageopacity="0"
     inkscape:pageshadow="2"
     inkscape:window-width="640"
     inkscape:window-height="480"
     id="namedview3203"
     showgrid="false"
     inkscape:zoom="41.1875"
     inkscape:cx="3.6783005"
     inkscape:cy="8"
     inkscape:current-layer="svg3197" />
  <defs
     id="defs3051">
    <style
       type="text/css"
       id="current-color-scheme">
      .ColorScheme-NegativeText {
        color:#da4453;
      }
      </style>
  </defs>
  <path
     style="fill:#43be80;fill-opacity:1"
     d="M 7.1352095,2.000008 C 6.8414326,2.0010726 6.5495626,2.1135694 6.3283022,2.3364984 5.8857554,2.7822568 5.887649,3.5126905 6.3333245,3.9553352 L 10.394646,7.9881976 6.3617838,12.049519 c -0.4425438,0.44572 -0.4389767,1.177941 0.0067,1.620511 0.4457094,0.44282 1.1762662,0.439304 1.6188368,-0.0067 L 12.827086,8.7884086 c 0.2212,-0.2228404 0.3342,-0.5177193 0.333143,-0.8102555 -0.0011,-0.2923056 -0.115392,-0.5873062 -0.338165,-0.8085814 L 7.947139,2.3298021 C 7.7242179,2.108487 7.4290084,1.9989434 7.1352095,2.000008 Z M 5.2083417,6.10653 C 4.1720867,6.10653 3.325,6.9519426 3.325,7.9881976 3.325,9.02449 4.1720867,9.87154 5.2083417,9.87154 c 1.0362927,0 1.8833417,-0.84705 1.8833417,-1.8833424 0,-1.036255 -0.847049,-1.8816676 -1.8833417,-1.8816676 z"
     id="path3201"
     inkscape:connector-curvature="0" />
</svg>
